X: 261
T: Coal Harbor Bend
B: canberra pickers and fiddlers
B: tunes
M:4/4
L:1/8
Q: 1/4=146
K:G
V:1 
|:E|DEGA BAGD|EA3A4|DEGA BAGD|EG3G3E|
DEGA BAGD|EA3A3G|A3B cBAG |EDEFG3:| 
|:d|e4e3d| BABd e3d|BABd e2d2|BdBG AG3 |[M:2/4]G2d2|
e4e3d|BABd e3d|BABd e2d2|BdBG AG3|[M:2/4][G,3G2]:|
% abcbook-tune_id 63ae8f1c9f26a47421ba00a5
% abcbook-tune_composer_id 
% abcbook-link-0 https://www.youtube.com/watch?v=FiX_zKczmM0
% abcbook-boost 0
% abcbook-difficulty 0
% abcbook-tags canberra pickers and fiddlers,old time tunes,steve ryan,© free
% abcbook-tablature 
% abcbook-transpose 
% abcbook-tuning GDAD
% abcbook-lastupdated 1675156148779
% abcbook-src-url https://tunebook.net/scrape/tunes.abc
% abcbook-soundfonts 
% abcbook-repeats 1


